X:1
T:O Lord, turn not away thy face - Mundy
T:#
%%score [ 1 2 3 ]
L:1/8
Q:1/4=100
M:4/2
K:F
V:1 treble nm="Soprano " snm="S"
V:2 treble nm="Alto" snm="A"
V:3 treble-8 nm="Tenor" snm="T"
V:1
"^O Lord, turn not away thy face""^John Mundy\n(?-1630)" D4 A4 d2 c3 ABG | A6 A2 B2 A2 A2 G2 | %2
w: O Lord, turn not a- way thy|face, O Lord, turn not a\-|
[M:4/2] F4 E2 A2 A4 A2 G2- | GFED (CD E2 G2) F2 E4 | F2 A4 G2 G4 c2 e2 | d4 =B4 z2 c2 d2 e2 | %6
w: * way thy face, O Lord,|* turn not a- way * * * thy face,|from him that lies, that lies|pros- trate: la- ment- ing|
 f2 (e2 c2) g4 f4 e2- | e2 d3 (cBA) G2 (A2 B4) | A4 c6 =B3 (c d2 | e2) d4 ^c2 d4 d4 | %10
w: for his * sin- ful life,|* for his * * sin- ful *|life, Be- fore thy *|* mer- cy gate, Which|
 =c4 A2 d4 c2 A2 (B2 | c4 A4) A4 z2 d2- | d2 g4 f2 e2 c2 e4- | e2 d2 c4 z2 c2 g4 | f4 d2 e2 A4 z4 | %15
w: gate thou op'n- est wide to|* * those, That|* do la- ment their sin,|* their sin, Shut not|that gate, that gate,|
 A2 c4 B2 A6 G2 | F4 F4 E4 A4 | A3 B c2 d2 e8 | A4 A4 A4 d4 | d3 e f2 g2 a4 d4 | %20
w: shut not that gate a-|gainst me, Lord, But|let me en- ter in,|en- ter in, but|let me en- ter in, but|
 ^c3 d e2 f2 g2 G2 G3 A | B2 c2 d4 A4[Q:1/4=99] f2[Q:1/4=97] e2 | %22
w: let me en- ter in, but let me|en- ter in, but let me|
[Q:1/4=95] d2[Q:1/4=94] c2[Q:1/4=90] (B6[Q:1/4=88] A[Q:1/4=87]B[Q:1/4=86] A2[Q:1/4=84] G2) | %23
w: en- ter * * * * *|
[Q:1/4=84] A16 |] %24
w: in.|
V:2
 z16 | A,4 D4 G2 F3 DEC |[M:4/2] D2 (A3 G E2 F2) E4 D2 | ^C3 (D E2) =B,3 (C D4 C2) | %4
w: |O Lord, turn not a- way thy|face O * * * Lord, turn|not a\- * way thy * *|
 D4 F2 D4 E4 c2 | =B2 A4 ^G2 A4 z2 C2 | D2 E2 F2 D2 E2 F2 G4- | G2 F2 G3 (F E2 F4 E2) | %8
w: face, thy face, From him|that lies pros- trate: La-|ment- ing sore his sin- ful life,|* his sin- ful * * *|
 F2 F4 E4 G2 D2 (A2 | G2 F2 E4) D8 | A4 F4 D2 A4 G2 | E4 D2 C2 F4 E2 A,2 | %12
w: life, Be- fore thy mer- cy|* * * gate,|Which gate thou op'n- est|wide to those, which gate thou|
 (=B,2 C2 D4) C2 (E2 A4) | G4 z2 A4 c4 B2 | A2 (F2 A4) F4 E2 G2- | G2 F2 E2 D2 F6 E2 | D8 ^C8 | %17
w: op'n\- * * est to *|those, That do la-|ment their * sin, Shut not|* that gate a- gainst me,|* Lord,|
 z4 z2 A,2 A,3 =B, C2 (D2 | E2 F2 E4) F8 | D4 D3 E F2 G2 A4 | E3 F G2 A2 B8 | G4 D3 E F2 G2 A4 | %22
w: But let me en- ter|* * * in,|but let me en- ter in,|let me en- ter in,|but let me en- ter in,|
 D4 G6 (^FG) F2 E2 | ^F16 |] %24
w: but let me * en- ter|in.|
V:3
 z16 | z16 |[M:4/2][K:treble-8] D4 A4 d2 c3 ABG | A4 A3 G E2 F2 G2 A2 | D4 d2 =B4 (c2 A4) | %5
w: ||O Lord, turn not a- way thy|face, Lord, turn not a- way thy|face, From him that *|
 d4 e4 A8 | z2 G2 A2 B2 c2 A2 B2 c2 | G2 B4 G2 c2 F2 G4 | F4 A4 (E3 F G2 F2 | E2 F2) G2 A2 D8 | %10
w: lies pros- trate:|La- ment- ing for his sin- ful|life, for his sin- ful life,|Be- fore thy * * *|* * mer- cy gate,|
 z4 z4 z4 z4 | A4 F4 D2 A4 F2 | G2 E2 D4 z2 A4 c2- | c2 B2 A2 F2 A4 z4 | D2 d4 ^c2 d4 (=c2 B2) | %15
w: |Which gate thou op'n- est|wide to those, That do|* la- ment their sin,|Shut not that gate a\- *|
 A4 G4 F4 D4 | D3 E F2 G2 A8 | A4 A3 B c2 d2 e2 d2 | ^c2 d4 c2 d8 | z4 D4 D3 E F2 G2 | A8 z4 G4 | %21
w: gainst me, Lord, But|let me en- ter in,|but let me en- ter in, let|me en- ter in,|but let me en- ter|in, but|
 G3 A B2 c2 d4 d2 c2 | B2 (A2 G4 d8) | D16 |] %24
w: let me en- ter in, let me|en- ter * *|in.|

